X: 853
T: Gâfil Ne Bilir
C: İsmail Hakkı Bey
O: Turkey
F: http://compmusic.upf.edu/node/140
N: mahur--mars--sofyan--gafil_ne--muallim_ismail_hakki_bey
N: makam= mahur
N: form= mars
N: usul= sofyan = 4/4
M: 4/4
L: 1/16
K: C ^9/8f   
Q: 1/4=111
%%MIDI tuningsystem comma53
g4 d4 g4 z2ga  | b3a a3g agfe f4  | a4 f4 a4 z2ab  | 
w:  ARANAĞME  |   |   | 
c'3b b3a bagf g4  | .d2.g2 g4 .d2.f2 f4  | \
w:   |   | 
e2ed e2f2 .d2.d2 .d4  | 
w:   | 
c2.e2 .e4 B2.d2 .d4  | B2AB dcBA .G2.G2 .GA/B/c/d/e/f/  | 
w:   |   | 
g4 d4 g4 z2ga  | b3a a3g agfe f4  | a4 f4 a4 z2ab  | 
w:  ARANAĞME  |   |   | 
c'3b b3a bagf g4  | .d2.g2 g4 .d2.f2 f4  | \
w:   |   | 
e2ed e2f2 .d2.d2 .d4  | 
w:   | 
c2.e2 .e4 B2.d2 .d4  | B2AB dcBA .G2.G2 .GA/B/c/d/e/f/  | 
w:   |   | 
g4 g4 f2ag g4  | f4 e2f2 d4 b4  | b3a g2b2 a3g f2a2  | \
w:  Gâ fil  ne  bi *  lir   |  neş ve  i  pür   |  şevk_ *  i  ve ga  | 
g2g4.=f.e .d.c.B.A GA/B/c/d/e/^9/8f/  | 
w:  yı   SAZ  | 
g4 g4 f2ag g4  | f4 e2f2 d4 b4  | b3a g2b2 a3g f2a2  | \
w:  Gâ fil  ne  bi *  lir   |  neş ve  i  pür   |  şevk_ *  i  ve ga  | 
g2g4.=f.e .d.c.B.A GA/B/c/d/e/^9/8f/  | 
w:  yı   SAZ  | 
g4 g3f a2gf f4  | e4 d2c2 e8  | d2e2 =f2e2 d2c2 B2^3/4A2  | \
w:  Mey dan_ *  ı  ce *  lâ  |  det te ki  en  |  vâr_ *  ı  se fâ  | 
B4 c4 ^c4 d4  | 
w:  yı    | 
d4 d4 edcB A4  | c4 B2A2 G4 B4  | A4 A2c2 B3G A2F2  | \
w:  Mey dan_ ı  *  ce *  lâ  |  det te ki  en  |  vâr_ ı  se fâ  | 
G2g4fe dcBc d4  | 
w:  yı   SAZ  | 
d4 d4 _2/4e2^f2 d4  | ^f4 _2/4e2d2 e8  | \
w:  Mer dân_ ı  ga zâ   |  aşk  i le  tek  | 
d4 {_7/8e}d2^c2 _7/8B3A B2c2  | d6.d.e .d.c.B.c .d4  | 
w:  bîr *  ler  a lın  |  ca   SAZ  | 
d4 d4 e2f2 d4  | e3d e2f2 g4 b4  | b3a g2b2 a3g f2a2  | \
w:  Tit ret ti  yi ne   |  rûy_ *  i  ze mîn   |  arş_ *  ı  se mâ  | 
g2g4.=f.e .d.c.B.A GA/B/c/d/e/^9/8f/  | 
w:  yı   SAZ  | 
g4 g3f a2gf f4  | e4 d2c2 e8  | d2e2 =f2e2 d2c2 B2^3/4A2  | \
w:  Al lah  *  yo lu *  na   |  ceng  e de lim   |  şân  *  a la lım   | 
B4 c4 ^c4 d4  | 
w:  şân    | 
d4 d4 edcB A4  | c4 B2A2 G4 B4  | A4 A2c2 B3G A2F2  | \
w:  Kur ân da  *  za *  fer   |  vad_ e di yor   |  Haz ret_ i  Yez  | 
G2g4.=f.e .d.c.B.A GA/B/c/d/e/^9/8f/  | 
w:  dân   SAZ  | 
g4 g3f a2gf f4  | e4 d2c2 e8  | d2e2 =f2e2 d2c2 B2^3/4A2  | \
w:  Al lah  *  yo lu *  na   |  ceng  e de lim   |  şân  *  a la lım   | 
B4 c4 ^c4 d4  | 
w:  şân    | 
d4 d4 edcB A4  | c4 B2A2 G4 B4  | A4 A2c2 B3G A2F2  | \
w:  Kur ân da  *  za *  fer   |  vad_ e di yor   |  Haz ret_ i  Yez  | 
G2g4.=f.e .d.c.B.A GA/B/c/d/e/^9/8f/  | 
w:  dân   SAZ  | 
g4 d4 g4 z2ga  | b3a a3g agfe f4  | a4 f4 a4 z2ab  | 
w:  ARANAĞME  |   |   | 
c'3b b3a bagf g4  | .d2.g2 g4 .d2.f2 f4  | \
w:   |   | 
e2ed e2f2 .d2.d2 .d4  | 
w:   | 
c2.e2 .e4 B2.d2 .d4  | B2AB dcBA .G2.G2 .GA/B/c/d/e/f/  | 
w:   |   | 
g4 d4 g4 z2ga  | b3a a3g agfe f4  | a4 f4 a4 z2ab  | 
w:  ARANAĞME  |   |   | 
c'3b b3a bagf g4  | .d2.g2 g4 .d2.f2 f4  | \
w:   |   | 
e2ed e2f2 .d2.d2 .d4  | 
w:   | 
c2.e2 .e4 B2.d2 .d4  | B2AB dcBA .G2.G2 .GA/B/c/d/e/f/  | 
w:   |   | 
g4 g4 f2ag g4  | f4 e2f2 d4 b4  | b3a g2b2 a3g f2a2  | \
w:  Gâ fil  ne  bi *  lir   |  neş ve  i  pür   |  şevk_ *  i  ve ga  | 
g2g4.=f.e .d.c.B.A GA/B/c/d/e/^9/8f/  | 
w:  yı   SAZ  | 
g4 g4 f2ag g4  | f4 e2f2 d4 b4  | b3a g2b2 a3g f2a2  | \
w:  Gâ fil  ne  bi *  lir   |  neş ve  i  pür   |  şevk_ *  i  ve ga  | 
g2g4.=f.e .d.c.B.A GA/B/c/d/e/^9/8f/  | 
w:  yı   SAZ  | 
g4 g3f a2gf f4  | e4 d2c2 e8  | d2e2 =f2e2 d2c2 B2^3/4A2  | \
w:  Mey dan_ *  ı  ce *  lâ  |  det te ki  en  |  vâr_ *  ı  se fâ  | 
B4 c4 ^c4 d4  | 
w:  yı    | 
d4 d4 edcB A4  | c4 B2A2 G4 B4  | A4 A2c2 B3G A2F2  | \
w:  Mey dan_ ı  *  ce *  lâ  |  det te ki  en  |  vâr_ ı  se fâ  | 
G2g4fe dcBc d4  | 
w:  yı   SAZ  | 
d4 d4 _2/4e2^f2 d4  | ^f4 _2/4e2d2 e8  | \
w:  Mer dân_ ı  ga zâ   |  aşk  i le  tek  | 
d4 {_7/8e}d2^c2 _7/8B3A B2c2  | d6.d.e .d.c.B.c .d4  | 
w:  bîr *  ler  a lın  |  ca   SAZ  | 
d4 d4 e2f2 d4  | e3d e2f2 g4 b4  | b3a g2b2 a3g f2a2  | \
w:  Tit ret ti  yi ne   |  rûy_ *  i  ze mîn   |  arş_ *  ı  se mâ  | 
g2g4.=f.e .d.c.B.A GA/B/c/d/e/^9/8f/  | 
w:  yı   SAZ  | 
g4 g3f a2gf f4  | e4 d2c2 e8  | d2e2 =f2e2 d2c2 B2^3/4A2  | \
w:  Al lah  *  yo lu *  na   |  ceng  e de lim   |  şân  *  a la lım   | 
B4 c4 ^c4 d4  | 
w:  şân    | 
d4 d4 edcB A4  | c4 B2A2 G4 B4  | A4 A2c2 B3G A2F2  | \
w:  Kur ân da  *  za *  fer   |  vad_ e di yor   |  Haz ret_ i  Yez  | 
G2|
w:  dân    | 


